images/cover/salvation-army-cover.svg

<svg fill="none" height="1200" viewBox="0 0 1800 1200" width="1800" xmlns="http://www.w3.org/2000/svg"><path d="m0 0h1800v1200h-1800z" fill="#f00015"/><g stroke="#fff" stroke-miterlimit="10" stroke-width="46.6301"><path d="m463 573.751 130.305-113.467 130.305 113.467"/><path d="m463 658.203 130.305-113.466 130.305 113.466"/><path d="m463 742.396 130.305-113.466 130.305 113.466"/></g><path d="m859.24 458.687h-10.871v-19.026h-17.742v19.026h-8.496v12.434h8.496v27.357c0 9.326.75 12.559 3.499 15.543 2.624 2.86 6.497 3.979 14.243 3.979h10.871v-13.305h-6.373c-4.123 0-4.498-.746-4.498-10.197v-23.377h10.871zm29.714-23.626h-17.742v82.939h17.742v-33.698c0-6.217.375-7.958 2.374-10.072 1.874-1.865 4.747-2.984 7.746-2.984s5.498 1.119 6.997 3.108c1.499 2.114 1.999 4.352 1.999 9.948v33.698h17.742v-36.931c0-8.953-1.499-14.051-5.372-18.279-3.874-4.228-9.371-6.466-15.494-6.466-6.247 0-10.995 1.989-15.992 6.715zm110.141 58.07c0-8.332-.875-13.927-2.999-19.15-4.498-11.315-14.119-17.657-26.863-17.657-18.242 0-30.861 12.932-30.861 31.708 0 18.901 12.369 31.585 30.986 31.585 14.368 0 25.613-7.461 28.987-19.15h-17.992c-2.374 3.73-5.747 5.347-10.495 5.347-7.622 0-12.495-4.476-13.619-12.683zm-42.731-12.435c1.374-7.088 5.872-10.943 12.744-10.943s10.995 3.855 11.745 10.943zm-78.258 98.275c-1.624-12.684-10.995-19.647-26.488-19.647-16.118 0-25.738 7.336-25.738 19.398 0 9.575 5.122 14.424 18.366 17.284l10.995 2.487c4.748 1.119 6.747 2.611 6.747 5.471 0 3.607-3.623 5.845-9.246 5.845-7.121 0-10.87-2.612-11.869-8.331h-16.618c1 13.305 11.37 21.139 28.113 21.139 16.742 0 27.112-7.959 27.112-20.642 0-4.85-1.624-9.326-4.498-12.062-2.623-2.735-6.372-4.352-13.743-5.844l-11.12-2.363c-5.623-1.243-7.372-2.362-7.372-4.6 0-2.985 3.373-4.974 8.496-4.974 5.872 0 9.496 2.362 10.246 6.839zm29.597.87c.75-4.849 4.248-7.088 10.745-7.088 5.748 0 9.246 2.114 9.246 5.472 0 2.487-1.374 3.481-5.373 4.103l-9.62 1.617c-16.868 2.735-23.989 8.58-23.989 19.895 0 11.316 8.871 18.777 22.24 18.777 7.121 0 11.369-1.493 17.242-6.342.625 2.238.625 2.611 1.374 4.725h18.117c-1.999-2.984-2.249-3.855-2.249-10.321v-27.605c0-8.828-1.624-13.678-5.997-17.533-4.748-4.103-11.745-6.217-20.866-6.217-16.992 0-25.613 6.715-26.738 20.517zm20.491 21.761c-2.874 5.098-7.122 7.585-12.994 7.585-5.623 0-8.996-2.363-8.996-6.342 0-3.606 2.749-5.72 9.121-7.212l6.372-1.368c2.998-.621 4.623-1.119 6.497-1.865zm50.685-63.541h-17.742v82.939h17.742zm47.041 82.939 20.49-60.06h-18.99l-6.12 23.005c-.88 3.606-2.38 10.569-3.75 17.284-2-7.337-3.5-13.057-4.75-17.284l-6.74-23.005h-18.621l21.611 60.06zm43.58-41.159c.75-4.849 4.24-7.088 10.74-7.088 5.75 0 9.25 2.114 9.25 5.472 0 2.487-1.38 3.481-5.38 4.103l-9.62 1.617c-16.86 2.735-23.99 8.58-23.99 19.895 0 11.316 8.88 18.777 22.24 18.777 7.13 0 11.37-1.493 17.25-6.342.62 2.238.62 2.611 1.37 4.725h18.12c-2-2.984-2.25-3.855-2.25-10.321v-27.605c0-8.828-1.63-13.678-6-17.533-4.75-4.103-11.74-6.217-20.86-6.217-17 0-25.62 6.715-26.74 20.517zm20.49 21.761c-2.88 5.098-7.13 7.585-13 7.585-5.62 0-8.99-2.363-8.99-6.342 0-3.606 2.74-5.72 9.12-7.212l6.37-1.368c3-.621 4.62-1.119 6.5-1.865zm63.67-39.915h-10.87v-19.026h-17.74v19.026h-8.5v12.434h8.5v27.357c0 9.326.75 12.559 3.5 15.543 2.62 2.86 6.5 3.979 14.24 3.979h10.87v-13.305h-6.37c-4.12 0-4.5-.746-4.5-10.197v-23.377h10.87zm29.72-.747h-17.75v60.06h17.75zm0-22.879h-17.75v14.548h17.75zm44.55 21.263c-18.74 0-31.98 13.056-31.98 31.584 0 18.652 13.24 31.709 31.98 31.709 18.62 0 32.11-13.057 32.11-31.212 0-19.149-12.99-32.081-32.11-32.081zm0 14.051c9.25 0 14.25 6.342 14.25 17.906 0 10.943-5.25 17.284-14.12 17.284-9.12 0-14.25-6.341-14.25-17.657 0-11.191 5.13-17.533 14.12-17.533zm44.71-12.435v60.06h17.74v-33.698c0-5.223.63-7.71 2.63-9.948 1.87-2.114 4.62-3.233 7.62-3.233 3.12 0 5.75 1.244 7.25 3.482s1.87 4.601 1.87 10.694v32.703h17.74v-38.921c0-14.175-7.99-22.879-21.11-22.879-6.25 0-10 1.616-16.5 7.585v-5.845zm-428.019 122.901c.75-4.849 4.248-7.088 10.745-7.088 5.748 0 9.246 2.114 9.246 5.472 0 2.487-1.374 3.481-5.372 4.103l-9.621 1.617c-16.868 2.735-23.989 8.58-23.989 19.895 0 11.316 8.871 18.777 22.24 18.777 7.121 0 11.37-1.493 17.242-6.342.625 2.238.625 2.611 1.374 4.725h18.117c-1.999-2.984-2.249-3.855-2.249-10.321v-27.605c0-8.828-1.624-13.678-5.997-17.533-4.748-4.103-11.745-6.217-20.866-6.217-16.992 0-25.613 6.715-26.738 20.517zm20.491 21.761c-2.874 5.098-7.122 7.585-12.994 7.585-5.623 0-8.996-2.363-8.996-6.342 0-3.606 2.749-5.72 9.121-7.212l6.372-1.368c2.998-.621 4.623-1.119 6.497-1.865zm32.943-40.662v60.06h17.742v-16.911c0-11.564.625-17.16 2.374-21.139 1.999-4.477 6.997-7.212 13.119-7.212 1.499 0 2.374 0 4.498.248v-16.662c-12.869-.124-17.367 2.611-20.866 12.31l.5-10.694zm47.342 0v60.06h17.742v-33.076c0-9.202 2.874-13.305 8.996-13.305 6.247 0 8.996 4.103 8.996 13.305v33.076h17.742v-33.076c0-9.202 2.747-13.305 8.997-13.305 6.12 0 8.87 4.103 8.87 13.305v33.076h17.74v-39.915c0-7.71-1.37-12.559-4.75-16.165-3.49-3.607-8.74-5.596-14.99-5.596-7.75 0-12.24 2.363-18.741 9.699-3.498-6.59-8.996-9.699-16.742-9.699-7.247 0-10.995 1.989-16.618 8.829v-7.213zm138.703 0-7.87 27.108c-1.38 5.347-2.38 9.45-3.12 13.43l-.75-2.363c-1.38-4.974-1.38-5.098-3.13-10.694l-8.87-27.481h-18.99l19.87 50.485c2.12 5.223 2.24 5.596 2.24 7.71 0 5.222-2.87 7.585-9.12 7.585h-5.24v13.305h10.37c6.62 0 10.62-.87 13.49-2.984 3.12-2.238 5.12-5.72 8.5-15.544l20.99-60.557z" fill="#fff"/></svg>

<svg width="1800" height="1200" viewBox="0 0 1800 1200" fill="none" xmlns="http://www.w3.org/2000/svg">
<g id="salvation-army-cover">
<rect width="1800" height="1200" fill="#F00015"/>
<g id="Frame 17">
<g id="Group">
<g id="Group_2">
<g id="Group_3">
<path id="Vector" d="M463 573.751L593.305 460.284L723.61 573.751" stroke="white" stroke-width="46.6301" stroke-miterlimit="10"/>
<path id="Vector_2" d="M463 658.203L593.305 544.737L723.61 658.203" stroke="white" stroke-width="46.6301" stroke-miterlimit="10"/>
<path id="Vector_3" d="M463 742.396L593.305 628.93L723.61 742.396" stroke="white" stroke-width="46.6301" stroke-miterlimit="10"/>
</g>
</g>
</g>
<path id="the&#226;&#128;&#168;salvation&#226;&#128;&#168;army" d="M859.24 458.687H848.369V439.661H830.627V458.687H822.131V471.121H830.627V498.478C830.627 507.804 831.377 511.037 834.126 514.021C836.75 516.881 840.623 518 848.369 518H859.24V504.695H852.867C848.744 504.695 848.369 503.949 848.369 494.498V471.121H859.24V458.687ZM888.954 435.061H871.212V518H888.954V484.302C888.954 478.085 889.329 476.344 891.328 474.23C893.202 472.365 896.075 471.246 899.074 471.246C902.073 471.246 904.572 472.365 906.071 474.354C907.57 476.468 908.07 478.706 908.07 484.302V518H925.812V481.069C925.812 472.116 924.313 467.018 920.44 462.79C916.566 458.562 911.069 456.324 904.946 456.324C898.699 456.324 893.951 458.313 888.954 463.039V435.061ZM999.095 493.131C999.095 484.799 998.22 479.204 996.096 473.981C991.598 462.666 981.977 456.324 969.233 456.324C950.991 456.324 938.372 469.256 938.372 488.032C938.372 506.933 950.741 519.617 969.358 519.617C983.726 519.617 994.971 512.156 998.345 500.467H980.353C977.979 504.197 974.606 505.814 969.858 505.814C962.236 505.814 957.363 501.338 956.239 493.131H999.095ZM956.364 480.696C957.738 473.608 962.236 469.753 969.108 469.753C975.98 469.753 980.103 473.608 980.853 480.696H956.364ZM878.106 578.971C876.482 566.287 867.111 559.324 851.618 559.324C835.5 559.324 825.88 566.66 825.88 578.722C825.88 588.297 831.002 593.146 844.246 596.006L855.241 598.493C859.989 599.612 861.988 601.104 861.988 603.964C861.988 607.571 858.365 609.809 852.742 609.809C845.621 609.809 841.872 607.197 840.873 601.478H824.255C825.255 614.783 835.625 622.617 852.368 622.617C869.11 622.617 879.48 614.658 879.48 601.975C879.48 597.125 877.856 592.649 874.982 589.913C872.359 587.178 868.61 585.561 861.239 584.069L850.119 581.706C844.496 580.463 842.747 579.344 842.747 577.106C842.747 574.121 846.12 572.132 851.243 572.132C857.115 572.132 860.739 574.494 861.489 578.971H878.106ZM907.703 579.841C908.453 574.992 911.951 572.753 918.448 572.753C924.196 572.753 927.694 574.867 927.694 578.225C927.694 580.712 926.32 581.706 922.321 582.328L912.701 583.945C895.833 586.68 888.712 592.525 888.712 603.84C888.712 615.156 897.583 622.617 910.952 622.617C918.073 622.617 922.321 621.124 928.194 616.275C928.819 618.513 928.819 618.886 929.568 621H947.685C945.686 618.016 945.436 617.145 945.436 610.679V583.074C945.436 574.246 943.812 569.396 939.439 565.541C934.691 561.438 927.694 559.324 918.573 559.324C901.581 559.324 892.96 566.039 891.835 579.841H907.703ZM928.194 601.602C925.32 606.7 921.072 609.187 915.2 609.187C909.577 609.187 906.204 606.824 906.204 602.845C906.204 599.239 908.953 597.125 915.325 595.633L921.697 594.265C924.695 593.644 926.32 593.146 928.194 592.4V601.602ZM978.879 538.061H961.137V621H978.879V538.061ZM1025.92 621L1046.41 560.94H1027.42L1021.3 583.945C1020.42 587.551 1018.92 594.514 1017.55 601.229C1015.55 593.892 1014.05 588.172 1012.8 583.945L1006.06 560.94H987.439L1009.05 621H1025.92ZM1069.5 579.841C1070.25 574.992 1073.74 572.753 1080.24 572.753C1085.99 572.753 1089.49 574.867 1089.49 578.225C1089.49 580.712 1088.11 581.706 1084.11 582.328L1074.49 583.945C1057.63 586.68 1050.5 592.525 1050.5 603.84C1050.5 615.156 1059.38 622.617 1072.74 622.617C1079.87 622.617 1084.11 621.124 1089.99 616.275C1090.61 618.513 1090.61 618.886 1091.36 621H1109.48C1107.48 618.016 1107.23 617.145 1107.23 610.679V583.074C1107.23 574.246 1105.6 569.396 1101.23 565.541C1096.48 561.438 1089.49 559.324 1080.37 559.324C1063.37 559.324 1054.75 566.039 1053.63 579.841H1069.5ZM1089.99 601.602C1087.11 606.7 1082.86 609.187 1076.99 609.187C1071.37 609.187 1068 606.824 1068 602.845C1068 599.239 1070.74 597.125 1077.12 595.633L1083.49 594.265C1086.49 593.644 1088.11 593.146 1089.99 592.4V601.602ZM1153.66 561.687H1142.79V542.661H1125.05V561.687H1116.55V574.121H1125.05V601.478C1125.05 610.804 1125.8 614.037 1128.55 617.021C1131.17 619.881 1135.05 621 1142.79 621H1153.66V607.695H1147.29C1143.17 607.695 1142.79 606.949 1142.79 597.498V574.121H1153.66V561.687ZM1183.38 560.94H1165.63V621H1183.38V560.94ZM1183.38 538.061H1165.63V552.609H1183.38V538.061ZM1227.93 559.324C1209.19 559.324 1195.95 572.38 1195.95 590.908C1195.95 609.56 1209.19 622.617 1227.93 622.617C1246.55 622.617 1260.04 609.56 1260.04 591.405C1260.04 572.256 1247.05 559.324 1227.93 559.324ZM1227.93 573.375C1237.18 573.375 1242.18 579.717 1242.18 591.281C1242.18 602.224 1236.93 608.565 1228.06 608.565C1218.94 608.565 1213.81 602.224 1213.81 590.908C1213.81 579.717 1218.94 573.375 1227.93 573.375ZM1272.64 560.94V621H1290.38V587.302C1290.38 582.079 1291.01 579.592 1293.01 577.354C1294.88 575.24 1297.63 574.121 1300.63 574.121C1303.75 574.121 1306.38 575.365 1307.88 577.603C1309.38 579.841 1309.75 582.204 1309.75 588.297V621H1327.49V582.079C1327.49 567.904 1319.5 559.2 1306.38 559.2C1300.13 559.2 1296.38 560.816 1289.88 566.785V560.94H1272.64ZM844.621 683.841C845.371 678.992 848.869 676.753 855.366 676.753C861.114 676.753 864.612 678.867 864.612 682.225C864.612 684.712 863.238 685.706 859.24 686.328L849.619 687.945C832.751 690.68 825.63 696.525 825.63 707.84C825.63 719.156 834.501 726.617 847.87 726.617C854.991 726.617 859.24 725.124 865.112 720.275C865.737 722.513 865.737 722.886 866.486 725H884.603C882.604 722.016 882.354 721.145 882.354 714.679V687.074C882.354 678.246 880.73 673.396 876.357 669.541C871.609 665.438 864.612 663.324 855.491 663.324C838.499 663.324 829.878 670.039 828.753 683.841H844.621ZM865.112 705.602C862.238 710.7 857.99 713.187 852.118 713.187C846.495 713.187 843.122 710.824 843.122 706.845C843.122 703.239 845.871 701.125 852.243 699.633L858.615 698.265C861.613 697.644 863.238 697.146 865.112 696.4V705.602ZM898.055 664.94V725H915.797V708.089C915.797 696.525 916.422 690.929 918.171 686.95C920.17 682.473 925.168 679.738 931.29 679.738C932.789 679.738 933.664 679.738 935.788 679.986V663.324C922.919 663.2 918.421 665.935 914.922 675.634L915.422 664.94H898.055ZM945.397 664.94V725H963.139V691.924C963.139 682.722 966.013 678.619 972.135 678.619C978.382 678.619 981.131 682.722 981.131 691.924V725H998.873V691.924C998.873 682.722 1001.62 678.619 1007.87 678.619C1013.99 678.619 1016.74 682.722 1016.74 691.924V725H1034.48V685.085C1034.48 677.375 1033.11 672.526 1029.73 668.92C1026.24 665.313 1020.99 663.324 1014.74 663.324C1006.99 663.324 1002.5 665.687 995.999 673.023C992.501 666.433 987.003 663.324 979.257 663.324C972.01 663.324 968.262 665.313 962.639 672.153V664.94H945.397ZM1084.1 664.94L1076.23 692.048C1074.85 697.395 1073.85 701.498 1073.11 705.478L1072.36 703.115C1070.98 698.141 1070.98 698.017 1069.23 692.421L1060.36 664.94H1041.37L1061.24 715.425C1063.36 720.648 1063.48 721.021 1063.48 723.135C1063.48 728.357 1060.61 730.72 1054.36 730.72H1049.12V744.025H1059.49C1066.11 744.025 1070.11 743.155 1072.98 741.041C1076.1 738.803 1078.1 735.321 1081.48 725.497L1102.47 664.94H1084.1Z" fill="white"/>
</g>
</g>
</svg>
